X: 6198
T: Caretaker, The
R: hornpipe
M: 4/4
K: Gmajor
|:GA (3Bcd gdcA|(3GFG AF GDB,D|GA (3Bcd gdcA|(3GFG AF D2 (3DEF|
GA (3Bcd gdcA|(3GFG AF GABc|dgfd cAFE|1 Dd (3cBA G2 (3DEF:|2 Dd (3cBA GA (3Bcd||
gBdg cdgd|Bdga bgaf|~g3b agfe|(3ded ^ce d2 (3B=cd|
gBdg cdgd|Bdga bgaf|dgfd cAFE|Dd (3cBA GA (3Bcd|
gBdg cdgd|Bdga bgaf|~g3b agfe|(3ded ^ce d=cBA|
GA (3Bcd gdcA|(3GFG AF GABc|dgfd cAFE|Dd (3cBA G2 (3DEF||

